app/dist/common/images/sunlight-financial.svg

<svg height="18" viewBox="0 0 18 18" width="18" xmlns="http://www.w3.org/2000/svg"><path d="m0 0h18v18h-18z" fill="#f0f3fa"/><path d="m4.52 6.68 4.16 3.32h5.26v.12c-.1.42-.37 1.01-.57 1.38h-2.62l1.76 1.11c-.39.37-.83.67-1.32.9l-2.83-2.01h-3.6c-.25-.47-.5-.93-.76-1.5h2.15l-2.15-1.82c.09-.53.26-1.04.5-1.5z" fill="#e78f24"/><path d="m9.2 8 4.3 3.3c.24-.45.41-.96.5-1.5l-2.27-1.8h2.24a4.84 4.84 0 0 0 -.58-1.5h-3.71l-2.85-2.02c-.49.23-.94.53-1.32.9l1.62 1.12h-2.47a4.42 4.42 0 0 0 -.66 1.62c.1-.5.27-1 .5-1.44l1.72 1.32h3z" fill="#d35027"/><path d="m13.94 7.88a5.05 5.05 0 0 0 -4.94-3.88c-1.23 0-2.44.46-3.38 1.25h4.65zm-1.57 4.87a5.07 5.07 0 0 1 -3.37 1.25 5.05 5.05 0 0 1 -4.94-3.9l3.56 2.65z" fill="#fdb813"/></svg>

<!-- by TradingView --><svg xmlns="http://www.w3.org/2000/svg" width="18" height="18" viewBox="0 0 18 18"><path fill="#F0F3FA" d="M0 0h18v18H0z"/><path d="M4.52 6.68L8.68 10h5.26v.12c-.1.42-.37 1.01-.57 1.38h-2.62l1.76 1.11c-.39.37-.83.67-1.32.9L8.36 11.5h-3.6c-.25-.47-.5-.93-.76-1.5h2.15L4 8.18c.09-.53.26-1.04.5-1.5z" fill="#E78F24"/><path d="M9.2 8l4.3 3.3c.24-.45.41-.96.5-1.5L11.73 8h2.24a4.84 4.84 0 0 0-.58-1.5H9.68L6.83 4.48c-.49.23-.94.53-1.32.9L7.13 6.5H4.66A4.42 4.42 0 0 0 4 8.12c.1-.5.27-1 .5-1.44L6.22 8h3z" fill="#D35027"/><path d="M13.94 7.88A5.05 5.05 0 0 0 9 4c-1.23 0-2.44.46-3.38 1.25h4.65l3.67 2.63zm-1.57 4.87A5.07 5.07 0 0 1 9 14a5.05 5.05 0 0 1-4.94-3.9l3.56 2.65h4.75z" fill="#FDB813"/></svg>
